X:1
T:Allegro
T:Allegro
T:3rd Movement from Sonata No.1 in F major adapted  for Woodwind Quartet 
T:Gottfried Heinrich Stölzel (1690-1749)
T:twoflutes 2019 / Felix Scharpf / https://commons.wikimedia.org/wiki/File:Karl_Hagemeister_Verschneite_Flusslandschaft.jpg
T:twoflutes 2019 / Felix Scharpf / https://commons.wikimedia.org/wiki/File:Karl_Hagemeister_Verschneite_Flusslandschaft.jpg
T:twoflutes 2019 / Felix Scharpf / https://commons.wikimedia.org/wiki/File:Karl_Hagemeister_Verschneite_Flusslandschaft.jpg
T:twoflutes 2019 / Felix Scharpf / https://commons.wikimedia.org/wiki/File:Karl_Hagemeister_Verschneite_Flusslandschaft.jpg
T:twoflutes 2019 / Felix Scharpf / https://commons.wikimedia.org/wiki/File:Karl_Hagemeister_Verschneite_Flusslandschaft.jpg
C:Gottfried Heinrich Stölzel (1690-1749)
Z:twoflutes 2019 / Felix Scharpf / https://commons.wikimedia.org/wiki/File:Karl_Hagemeister_Verschneite_Flusslandschaft.jpg
%%score [ 1 2 3 4 ]
L:1/8
Q:1/2=110
M:2/2
K:F
V:1 treble nm="Flöte 1" snm="Fl. 1"
V:2 treble nm="Flöte 2" snm="Fl. 2"
V:3 treble nm="Oboe" snm="Ob."
V:4 bass nm="Fagott" snm="Fgt."
V:1
!mf! f4 c4 | f4 z2 c2 | .f.e f2 .g.f g2 | (a2 g2 f2 g2) | .a.g a2 .b.a b2 | c'2 e2 f2 .g.a | %6
 b4 a4 | g4 z2!mp! g2 | a3 g .f.g.a.g | .f.g.a.g .f.g.a.f | g3 f .e.f.g.f | .e.f.g.f .e.f.g.e | %12
 f3 e .d.e.f.e | .d.e.f.e .d.e.f.d |"_cresc." (e2 f4 g2- | g2 a4) .g.f | (e2 f4 g2- | g2 a4) .g.f | %18
 (e2 f2) d4 | c4 g4 | c2 .g2 .c2 .=B2 | c8 ::!mf! c4 G4 | c4 z2 G2 | .c.B c2 .d.c d2 | %25
 (e2 d2 c2 d2) | .e.d e2 .f.e f2 | (g2 c2 d2 e2) | f4 z4 | z8 | z2 (ga) (ba)(.g.f) | %31
 e4 z2"_cresc." A2 | .e.d e2 .e.f g2 | .f.e f2 .f.g a2 | .^f.e f2 .f.g a2 | .g.^f g2 .g.a =b2 | %36
 .^g.^f g2 .g.a =b2 | a4 e4 | .a.^g a2 .e.^f g2 | a4 (e2 d2 |!mp! c4 =B4) | z2 (g2 f2 e2 | %42
 d4 ^c4) | (b4 a2 g2 | f4 e4) | .d.e f2 .e.d e2 | c2 d2 T=B4 | A4 z4 | z8 | z8 | %50
 z2!mf! .g2 .a2 .^f2 | .g2 .d2 .B2 .G2 | z8 | z4 z2 g2 | .f.g a2 .g.f g2 | %55
 !wedge!e2 !wedge!c2 !wedge!f2 !wedge!A2 | !wedge!B2!f! !wedge!B2 !wedge!d2 !wedge!f2 | %57
 z2 !wedge!B2 !wedge!d2 !wedge!G2 | z2 !wedge!A2 !wedge!c2 !wedge!f2 | %59
 z2 !wedge!A2 !wedge!c2 !wedge!F2 |"_cresc." z2 !wedge!B2 !wedge!b2 !wedge!B2 | %61
 z2 !wedge!G2 !wedge!g2 !wedge!G2 | z2 !wedge!A2 !wedge!a2 !wedge!A2 | %63
 z2 !wedge!F2 !wedge!f2 !wedge!F2 | z2 !wedge!G2 !wedge!g2 !wedge!G2 | %65
 z2 !wedge!c2 !wedge!c'2 !wedge!c2 |!f! (f2 g4 a2- | a2 b4) .a.g | (f2 g4 a2- | a2 b4) .a.g | %70
 .f2 .g2 Te4 | f4 z4 | z8 | z4 c4 | .A2 .B2 TG4 | F8 :| %76
V:2
 F4 C4 | F4 z4 | A4 G4 | (F2 G2 A2 G2) | F4 B4 | A2 G2 F2 F2 | C4 C4 | C4 z4 | %8
 z2!mf! !wedge!A2 !wedge!c2 !wedge!A2 | z2 !wedge!F2 !wedge!A2 !wedge!F2 | %10
 z2 !wedge!G2 !wedge!c2 !wedge!G2 | z2 !wedge!C2 !wedge!G2 !wedge!C2 | %12
 z2 !wedge!F2 !wedge!A2 !wedge!F2 | z2 !wedge!=B2 !wedge!G2 !wedge!B2 |"_cresc." c8- | c8- | c8- | %17
 c8 | (c2 A2) G4 | G4 z4 | z2 .G2 .G2 .G2 | G8 ::!mf! c4 G4 | c4 z4 | G4 G4 | G4 z4 | c4 c4 | %27
 c4 z4 | z8 | z8 | z8 | z8 | z8 | z8 | z8 | z8 | z8 | z8 | z8 | z8 | z8 | z8 | z8 | z8 | z8 | z8 | %46
 z8 | z8 | z8 | z8 | z8 | z8 |!mf! B4 C4 | B4 z2 B2 | .A.B c2 .B.A B2 | G4 z4 | z8 | z8 | z8 | %59
 z4 z2 c2 |!mf!"_cresc." d3 c .B.c.d.c | .B.c.d.c .B.c.d.B | c3 B .A.B.c.B | .A.B.c.B .A.B.c.A | %64
 B3 A .G.A.B.A | .G.A.B.A .G.A.B.G |!f! (A2 B4 c2- | c2 d4) .c.B | (A2 B4 c2- | c2 d4) .c.B | %70
 .A2 .B2 TG4 | F4 c4 | F4 z4 | z4 F2 z2 | .A2 .B2 TG4 | F8 :| %76
V:3
 f4 c4 | f4 z4 | c4 e4 | (f2 e2 f2 e2) | f4 e3 d | c2 c2 .c.d.e.f | g4 f4 | e4 z4 | %8
 z2!mf! !wedge!F2 !wedge!A2 !wedge!F2 | z2 !wedge!F2 !wedge!D2 !wedge!F2 | %10
 z2 !wedge!E2 !wedge!G2 !wedge!E2 | z2 !wedge!E2 !wedge!C2 !wedge!E2 | %12
 z2 !wedge!D2 !wedge!F2 !wedge!D2 | z2 !wedge!D2 !wedge!=B,2 !wedge!=B2 |"_cresc." (c2 d4 e2- | %15
 e2 f4) .e.d | (c2 d4 e2- | e2 f4) .e.d | c2 c2 =B4 | c4 z4 | z2 .E2 .E2 .D2 | C8 ::!mf! c4 G4 | %23
 c4 z4 | A4 =B4 | c2 .=B.A G2 .A.B | .c.=B c2 .d.c d2 | e4 z2 c2 | .f.e f2 .g.f g2 | %29
 !wedge!a2 .g.a f2 .g.a | (ba)(gf) (gf)(.e.d) | ^c4 z2"_cresc." c2 | .^c.=B c2 .c.d e2 | %33
 !wedge!d2 !wedge!A2 !wedge!F2 !wedge!D2 | .^d.^c d2 .d.e ^f2 | %35
 !wedge!e2 !wedge!=B2 !wedge!G2 !wedge!E2 | .=B.A B2 .B.c d2 | e2 A2 a4 | e4 a4 | e4 a4 | A4 ^G4 | %41
!mp! (b4 a2 g2 | f4 e4) | z2 (g2 f2 e2 | d4 ^c4) | d2 A2 =B2 ^G2 | A2 =B2 T^G4 | A4 z4 | %48
!mf! c4 D4 | c4 z2 _e2 | d2 .c.B A2 .B.c | B2 .A.B G4 | z8 | z8 | z8 | z4 z2!mp! c2 | %56
 d3 c .B.c.d.c | .B.c.d.c .B.c.d.B | c3 B .A.B.c.B | .A.B.c.B .A.B.c.A | %60
!mf!"_cresc." B3 A .G.A.B.A | .G.A.B.A .G.A.B.G | A3 G .F.G.A.G | .F.G.A.G .F.G.A.F | %64
 G3 F .E.F.G.F | .E.F.G.F .E.F.G.E |!f! F8- | F8 | f8- | f8 | .c2 .d2 G2 c2 | A4 z4 | z8 | z4 c4 | %74
 .F2 .G2 TE4 | F8 :| %76
V:4
!mf! F,4 C,4 | F,4 z4 | F,4 C,4 | (F,2 C,2 F,,2 C,2) | F,4 G,4 | A,2 .C.B, A,2 .G,.F, | E,4 F,4 | %7
 C,2 D,2 E,2 C,2 | !>!F,4 z4 | !>!D,4 z4 | !>!E,4 z4 | !>!C,4 z4 | !>!D,4 z4 | !>!=B,,4 z4 | C,8- | %15
 C,8 | C8- | C8 | z2 C,2 F,2 G,2 | C,4 z4 | z2 .C,2 .E,2 .G,2 | C,8 ::!mf! C4 G,4 | C4 z4 | %24
 C,4 G,,4 | C,2 .G,.F, E,2 D,2 | C,4 F,4 | C,2 C2 B,2 C2 | A,4 E,4 | F,4 z2 F,2 | G,4 G,,4 | %31
 A,,4 z2"_cresc." A,2 | !wedge!A,2 !wedge!E,2 !wedge!^C,2 !wedge!A,,2 | D,4 z4 | %34
 !wedge!B,2 !wedge!^F,2 !wedge!^D,2 !wedge!B,,2 | E,4 z4 | %36
 !wedge!E2 !wedge!=B,2 !wedge!^G,2 !wedge!E,2 | !wedge!C,2 !wedge!A,,2 z2 !wedge!A,,2 | %38
 !wedge!C,2 !wedge!A,,2 z2 !wedge!E,2 | !wedge!C,2 !wedge!A,,2 z4 |!mp! A,4 E,4 | G,4 ^C,4 | %42
 D,4 A,,4 | G,,4 ^C,4 | D,4 A,,4 | D,4 ^G,2 E,2 | A,2 D,2 E,4 | %47
!mf! !wedge!A,2 !wedge!E,2 !wedge!^C,2 !wedge!A,,2 | !wedge!A,2 !wedge!C2 !wedge!^F,2 !wedge!D,2 | %49
 !wedge!A,2 !wedge!^F,2 !wedge!D,2 !wedge!C,2 | !wedge!B,,2 !wedge!_E,2 !wedge!C,2 !wedge!D,2 | %51
 G,,4 z4 | !wedge!G,2 !wedge!B,2 !wedge!E,2 !wedge!C,2 | %53
 !wedge!G,2 !wedge!E,2 !wedge!C,2 !wedge!E,2 | F,4 B,,4 | %55
 !wedge!C,2 !wedge!C2 !wedge!A,2!mp! !wedge!F,2 | !wedge!D,2 !wedge!B,2 z4 | !>!G,4 z4 | %58
 !>!A,4 z4 | !>!F,4 z4 | !>!B,,4 z4 | !>!G,,4 z4 | !>!A,,4 z4 | !>!F,,4 z4 | !>!G,,4 z4 | %65
 !>!C,4 z4 |!f! F,8- | F,8- | F,8- | F,8 | .F,2 .B,,2 C,4 | F,,4 z4 | z4 C,4 | F,,4 z4 | %74
 .F,2 .B,,2 C,4 | F,,8 :| %76

